X: 234
T:Aly's Waltz
R:waltz
C:Terry Rasmussen
D:Aly Bain - Lonely Bird, Sliabh Notes, McGuires - Wishing Tree
Z:Naka Ishii
Z:chords added by Alf warnock alf0@rogers.com - www.alfwarnock.info/alfs
M:3/4
L:1/8
K:F
FG|"F"A3d2 c/A/|"C"G3d cA|"Dm"F3G FE|"Bb"DE4F|
"F"CF3 A2| "Bb"B4 AG|"F"FC3 A_A|"C7"G4 FG|
"F"A3d2 c/A/|"C"G3d cA|"Dm"F3G FE|"Bb"DE4F|
"F"CF3 A2| "Gm"B3A GF|"Bb"DF4E|"F"F4 :|
F2| "Bb"d3e2f|"F"c4 ef|"Gm"B3A GF|"F"A6|
"A7"A3=B ^cA|"Dm"d4 cB|"F"A/2c3/2 F2 EF|"C7"G4 FG|
"F"A3d2 c/A/|"C"G3d cA|"Dm"F3G FE|"Bb"DE4F|
"F"CF3 A2| "Gm"B3A GF|"Bb"DF4E|"F"F4 :|
